src/components/Icon/assets/funnel.svg

<svg width="24" height="24" viewBox="0 0 24 24" fill="none" xmlns="http://www.w3.org/2000/svg">
<g id="funnel">
<path id="Combined Shape" fill-rule="evenodd" clip-rule="evenodd" d="M20 2C20.5523 2 21 2.44772 21 3V5.17157C21 5.70201 20.7893 6.21071 20.4142 6.58579L15.5858 11.4142C15.2107 11.7893 15 12.298 15 12.8284V19.382C15 19.7607 14.786 20.107 14.4472 20.2764L10.4472 22.2764C9.95324 22.5234 9.35256 22.3232 9.10557 21.8292C9.03615 21.6903 9 21.5372 9 21.382V12.8284C9 12.298 8.78929 11.7893 8.41421 11.4142L3.58579 6.58579C3.21071 6.21071 3 5.70201 3 5.17157V3C3 2.44772 3.44772 2 4 2H20ZM19 4H5V5.17157L9.82843 10C10.1247 10.2962 10.3697 10.6342 10.5577 11H13.4423C13.5963 10.7003 13.7886 10.4194 14.0159 10.1648L14.1716 10L19 5.17157V4ZM13 13H11V19.763L13 18.763V13Z" fill="#242428"/>
</g>
</svg>

<svg xmlns="http://www.w3.org/2000/svg" width="24" height="24" fill="none" viewBox="0 0 24 24">
    <path fill="#65676A" fill-rule="evenodd" d="M20 2c.552 0 1 .448 1 1v2.172c0 .53-.21 1.039-.586 1.414l-4.828 4.828c-.375.375-.586.884-.586 1.414v6.554c0 .379-.214.725-.553.894l-4 2c-.494.247-1.094.047-1.341-.447-.07-.139-.106-.292-.106-.447v-8.554c0-.53-.21-1.039-.586-1.414L3.586 6.586C3.21 6.21 3 5.702 3 5.172V3c0-.552.448-1 1-1h16zm-1 2H5v1.172L9.828 10c.297.296.542.634.73 1h2.884c.154-.3.347-.58.574-.835l.156-.165L19 5.172V4zm-6 9h-2v6.763l2-1V13z" clip-rule="evenodd"/>
</svg>
